assets/images/angle-right.svg

<svg width="18" height="53" viewBox="0 0 18 53" fill="none" xmlns="http://www.w3.org/2000/svg">
<path d="M1.59126 51.9995C1.74254 51.9995 1.89383 51.9037 2.00966 51.7139L16.8274 27.1864C16.9374 27.0025 17 26.7541 17 26.4939C17 26.2337 16.9374 25.9853 16.8274 25.8014L2.00848 1.28561C1.77801 0.904143 1.40334 0.904143 1.17286 1.28561C0.942387 1.66708 0.942386 2.28721 1.17286 2.66868L15.5734 26.4939L1.17286 50.3289C0.942382 50.7103 0.942381 51.3305 1.17286 51.7119C1.28869 51.9037 1.43997 51.9995 1.59126 51.9995Z" fill="#C4C4C4" stroke="white" stroke-width="0.5"/>
</svg>

<svg width="18" height="53" fill="none" xmlns="http://www.w3.org/2000/svg"><path d="M1.591 52c.152 0 .303-.096.419-.286l14.817-24.528c.11-.183.173-.432.173-.692 0-.26-.063-.509-.173-.693L2.008 1.286c-.23-.382-.605-.382-.835 0-.23.381-.23 1.001 0 1.383l14.4 23.825-14.4 23.835c-.23.381-.23 1.002 0 1.383.116.192.267.287.418.287Z" fill="#C4C4C4" stroke="#fff" stroke-width=".5"/></svg>
